X: 19
M:4/4
L:1/8
K:D
|:DF/2G/2 AF BGAF|DDAF A>B A/2G/2F/2E/2|DF/2G/2 AF BGAF|
fddd Adfd|ecce g2 {a}gf/2e/2:||:fdec dB A/2G/2F/2E/2|

